X: 456
T: The Grave of Wolfe Tone
N:"Plaintive" "collected by J.O'Neill"
N:Irish title: uai.m uolfe tone
B:O'Neill's 456
Z:Transcribed by henrik.norbeck@mailbox.swipnet.se
M:3/4
L:1/8
K:Gm
d=e | f2 g2 f2 | d2 c2 F2 | A2 G2 G2 | G4 AG |
F2 G2 A2 | c2 d2 c2 | c2 A2 G2 | F4 GA |
B2 A2 G2 | A2 G2 GA | B2 c2 d2 | g4 fg |
a2 g2 f2 | d2 c2 FG | A2 G2 G2 | G4 ||


